!!!OTL: Röschen (127a), S. 290
!!!id: T0296
**kern
*clefG2
*k[f#c#]
*D:
{8.d
16f#
=1
4a
4b
8.a
16g
=2
4g
4f#}
=3
{8.e
16f#
=4
4g
4b
8.a
16g
=5
4f#}
4r
=6
{8.d
16f#
=7
4a
4b
8.a
16g
=8
4g
4f#}
=9
{8.e
16f#
=10
4g
4b
8.a
16g
=11
4f#}
4r
=12
{8a
8a
=13
8a
8f#
8d
8f#
8a
8b
=14
4cc#
4cc#}
=15
{8b
8cc#
=16
4.dd
8dd
8ee
8dd
=17
8cc#
8b
8a}
=18
{8g
8f#
8g
=19
4.a
8b
8a
8g
=20
8g
8f#
8f#}
=21
{8f#
8e
8f#
=22
4g
4b
8a
8g
=23
4f#}
4r
==
*-
!!!minrhy: 16
!!!meters: 3/4 ]  ZZ[8
!!!cut1: Röschen (127a), S. 290
!!!cut2: Melodie II
!!!reg: Luxemburg
!!!trd: Singendes Volk, Esch-Alzette 1937 posth.
!!!rhy1: X_.X  X__X__X_.X  X__X__
!!!rhy2: X_.X  X__X__X_.X  X__0__
!!!key: T0296  16  D 3/4 ]  ZZ[8
!!!mod: HEPTATONIK IONISCH]  AMBITUS[9
!!!kad: 33337533
!!!akz: 54_43_54_43_57_+17_54_43_
!!!fot: 'a__b__a__b__c__bs'aw_bv_
!!!for: 'a__a__a__a__b__c__cv_d__
!!!fok: '^a_^a_^a_^a_/__^d_^d_^__
!! PHRAS[AUFTAKTIG]
!!!fkt: Liebeslieder
!!!bem1: Reuland, hhh Gabriel Petry, 1907;
!!!bem2: (127c)- StraPen, fff Witry, 17.1.1933
!! THILL, Mathias:
!! PR[11] 2K[4] 2G[28] 3K[4] 3G[0] 4A[7] 4Ü[0] 5A[0] 6K[0] 6G[0]
!! 7K[0] 7G[0] 8A[2] MEHR[0] SI[46] ABS[46] SR[33] SP[13]
!! ST[12] 2k[7] 2g[20] 3k[2] 3g[9] 4d[2] 4ü[0] 5d[0] 6k[4] 6g[0]
!! 7k[0] 7g[0] 8d[0] mehr[0] si[43] dm[+3] sr[26] sp[17]
!! 1F[75] 2F[13] 3F[0] 4F[0] LF[0] 2P[11] 3P[0] 4P[0] TRI[0] DF[3] AB[53]
!! TF[0] U3K[0] U3[0] U4[0] U4Ü[0] U5[2] U6K[0] U6[13] U7K[0] U7[11]
!! N1[23] N2K[0] N2[17] N3K[0] N3[19] N4[4] N4Ü[0] N5[6] N6K[0] N6[4]
!!!n7k: 0] N7[0] O1[0] O2K[0] O2[0] O3K[0] O3[0] HÖ[0
